X: 20666
T: John Walsh's
R: polka
M: 2/4
K: Gmajor
AA/B/ cB|AF FE|CE FE|CE FG|
A>B cB|AF FE|C/D/E FG|A3:|
ab/a/ ga|ba af|ec cB|AB c/d/e/g/|
a2 g>a|ba a>f|ec cB|A3:|
GG/A/ BA|GE E>D|B,D ED|B,/C/D EF|
G>A BA|GE EE/D/|B,/C/D EF|G2 G:|
ga/g/ fg|ag g>e|dB BA|G>A B/c/d|
ga/g/ ff/g/|ag ge|dB BA|G2 G:|

